X:260
T:Young rival - Luxton
%%VWML:SBG-1-2-39-0
F:http://www.vwml.org/record/SBG/1/2/39
Z:Original Sibelius transcriptions by M. & S. Graebe
M:3/4
I:linebreak $
K:G
V:1 treble nm="P1"
V:1
 GA | B2 B2 dB | AB c2 BA | GD GB AF | G3 z GA | B2 B2 dB | AB c2 c2 | d3 z G>B |$ d2 de dc | %9
 B3 A G2 | c2 cd ec | A2 dc | B2 G2 AG | F2 D2 GA | B2 c2 A2 | G4 x2 | %16

